icons/volume-outline.svg

<svg width="24" height="24" viewBox="0 0 24 24" fill="none" xmlns="http://www.w3.org/2000/svg">
<path fill-rule="evenodd" clip-rule="evenodd" d="M6.00002 16.0001L10.537 19.9341C10.954 20.0721 11.301 20.0521 11.578 19.8761C11.856 19.7001 11.997 19.4001 12 18.9751L12.004 5.29712C12.021 4.72112 11.88 4.34412 11.582 4.16712C11.284 3.99012 10.937 3.96012 10.542 4.07712L6.00302 8.00012H4.00302C2.67002 8.00612 2.00302 8.67312 2.00302 10.0001C2.00302 11.7651 1.99902 13.4341 1.99902 13.9981C1.99902 15.3231 2.66602 15.9901 3.99902 16.0001H5.99902H6.00002ZM6.00402 14.0001L4.00402 13.9981V10.0001H6.00402C6.15502 10.0001 7.48902 8.99312 10.004 6.98012V17.2191C7.48902 15.0731 6.15502 14.0001 6.00402 14.0001ZM17.398 19.7971C17.6088 19.9574 17.8746 20.0276 18.1371 19.9921C18.3996 19.9567 18.6373 19.8186 18.798 19.6081C20.866 16.8981 22.004 15.5131 22.004 12.0261C22.004 8.54012 20.867 7.10212 18.802 4.39412C18.723 4.28802 18.6237 4.19866 18.5099 4.13121C18.3961 4.06375 18.27 4.01955 18.139 4.00116C18.008 3.98277 17.8747 3.99056 17.7467 4.02408C17.6187 4.05759 17.4987 4.11616 17.3935 4.1964C17.2883 4.27664 17.2001 4.37695 17.134 4.49153C17.0678 4.6061 17.0251 4.73266 17.0082 4.86387C16.9913 4.99508 17.0007 5.12833 17.0356 5.25592C17.0706 5.3835 17.1306 5.50287 17.212 5.60712C19.012 7.96712 20.004 8.97512 20.004 12.0261C20.004 15.0781 19.012 16.0321 17.209 18.3961C17.1292 18.5004 17.0708 18.6195 17.0371 18.7464C17.0034 18.8734 16.9951 19.0057 17.0127 19.1358C17.0303 19.266 17.0733 19.3914 17.1395 19.5049C17.2056 19.6184 17.2934 19.7177 17.398 19.7971ZM14.724 16.5071C15.164 16.8431 15.54 16.8331 16.126 16.3201C17.146 15.4251 18.004 13.7881 18.004 12.0281C18.004 10.2681 17.274 8.79012 16.126 7.70312C15.781 7.30312 15.166 7.20612 14.727 7.54112C14.288 7.87712 14.181 8.63612 14.538 8.94312C15.651 9.89912 16.004 11.0261 16.004 12.0281C16.004 13.0291 15.685 14.0291 14.536 15.1071C14.39 15.2441 14.331 15.5011 14.331 15.7131C14.331 16.0131 14.467 16.3121 14.724 16.5081V16.5071Z" fill="#3A3A47"/>
</svg>

<svg xmlns="http://www.w3.org/2000/svg" width="24" height="24" viewBox="0 0 24 24">
    <path fill="#3A3A47" fill-rule="evenodd" d="M18.799 19.608c2.067-2.71 3.205-4.095 3.205-7.582 0-3.486-1.137-4.924-3.202-7.632a1 1 0 1 0-1.59 1.213c1.8 2.36 2.792 3.368 2.792 6.419 0 3.052-.992 4.006-2.795 6.37a.998.998 0 0 0 1.59 1.212zm-7.22.268c.277-.176.418-.476.421-.901l.004-13.678c.017-.576-.124-.953-.422-1.13-.298-.177-.645-.207-1.04-.09L6.003 8h-2c-1.333.006-2 .673-2 2v1.355L2 13.998c0 1.325.667 1.992 2 2.002h2l4.537 3.934c.417.138.764.118 1.041-.058zm-1.575-2.657C7.489 15.073 6.155 14 6.004 14l-2-.002V10h2c.151 0 1.485-1.007 4-3.02v10.239zm6.122-.9c1.02-.894 1.878-2.531 1.878-4.291 0-1.76-.73-3.238-1.878-4.325-.345-.4-.96-.497-1.399-.162-.439.336-.546 1.095-.189 1.402 1.113.956 1.466 2.083 1.466 3.085 0 1.001-.319 2.001-1.468 3.079-.146.137-.205.394-.205.606 0 .3.136.599.393.795.44.335.816.325 1.402-.188z"/>
</svg>
